X:1
T:Silent Night
T:Silent Night
T:Franz Gruber
T:Notasyon: Musa Çetiner
T:www.kolaynota.com
Z:Notasyon: Musa Çetiner
Z:www.kolaynota.com
L:1/8
Q:1/4=134
M:3/4
K:C
V:1 treble nm="Flüt" snm="Fl."
V:1
"^Sol" G3"^La" A"^Sol" G2 |"^Mi" E6 |"^Sol" G3"^La" A"^Sol" G2 |"^Mi" E6 |"^Re" d4"^Re" d2 | %5
"^Si" B4"^Si" B2 |"^Do" c4"^Do" c2 |"^Sol" G6 |"^La" A4"^La" A2 |"^Do" c3"^Si" B"^La" A2 | %10
"^Sol" G3"^La" A"^Sol" G2 |"^Mi" E6 |"^La" A4"^La" A2 |"^Do" c3"^Si" B"^La" A2 | %14
"^Sol" G3"^La" A"^Sol" G2 |"^Mi" E6 |"^Re" d4"^Re" d2 |"^Fa" f3"^Re" d"^Si" B2 |"^Do" c6 | %19
"^Mi" e6 |"^Do" c2"^Sol" G2"^Mi" E2 |"^Sol" G3"^Fa" F"^Re" D2 |"^Do" C6- |"^Do" C6 :| %24

